X:53
T:The Theodore
N:page 30 on manuscript
M:C
L:1/8
K:C
g4 | e2 c2 f2 a2 | g4 c'4 | c'2 ba g2 f2 | e4 g4 | e2 c2 f2 a2 | g4 c'4 | d2 fa g2 B2 | Hc4 :||: e4 | d2 G2 e2 fg |
d2 G2 e4 | d2 G2 e2 fg | d2 G2 (^cd).d.d | (^de).e.e (g^f).f.f | (ag).g.g (ab).b.b | {e'}c'2 ba g2 T^f2 | g4 +D.C.+:|

